X:1
T:James Gibb editions
T:Psalm 138 (Becker) - Schütz
%%score [ ( 1 2 ) ( 3 4 ) ]
L:1/8
Q:1/4=98
M:2/2
K:C
V:1 treble nm="Soprano Alto"
V:2 treble 
V:3 bass nm="Tenor Bass"
V:4 bass 
V:1
"^Cornelius Becker\n(1561-1604)""^Psalm 138, SWV 243""^Heinrich Schütz\n(1585-1672)" c4 | %1
w: ~Aus|
w: lob-|
 B2 A2 c2 G2 | F4 E2 e2 | d2 c2 c2 B2 | c4 :| G4 | A2 B2 c2 B2 |[M:2/2] A4 ^F2 D2 | E2 G2 G2 ^F2 | %9
w: mei- nes Her- zens-|grun- de dank|ich dir, Gott, al-|lein,|Wo|dein Volk kommt zu-|sam- en, will|ich an- be- ten|
w: sing mit fro- hem|Mun- de vor|al- len En- geln|dein.|||||
 G4 E4 | G2 A2 B2 c2 | B4 A2 G2 | F2 E2 F4 | D4 C8 |] %14
w: frei und|dan- ken dei- nem|Na- men, rüh-|men dein Güt|und Treu.|
w: |||||
V:2
 G4 | G2 F2 G2 G,2 | D4 G,2 G2 | G2 E2 A2 G2 | G4 :| E4 | ^F2 G2 A2 G2 |[M:2/2] E4 D2 A,2 | %8
 C2 B,2 E2 D2 | D4 C4 | C2 A,2 B,2 E2 | E4 E2 C2 | A,2 C2 (D2 C2- | C2) B,2 C8 |] %14
V:3
 E4 | E2 C2 E2 C2 | (A,2 B,2) C2 C2 | B,2 C2 F2 D2 | C4 :| B,4 | D2 D2 F2 D2 | %7
[M:2/2]"^2. Du hast deins Namens Ehre \nherrlich und groß gemacht \ndurch deines Wortes Lehre, \nwohl dem, ders nimmt in acht. \nAuf mein Gebet wirst merken, \nso oft ich zu dir schrei, \ndu sollst mein Seele stärken, \ndein Kraft mir wohne bei.\n\n3. Mit Dank, Herr, dich verehren \ndie König aller Ort, \nwenn sie aus dein'm Mund hören \ndas seligmachend Wort;\nvon Gottes Weg und Weise \nsingt man ein schönes Lied, \nsein Ruhm und Ehr zu preisen \nist jedermann bemüht.\n\n4. Gott hat dich hoch gesetzet \nund schaut vons Himmels Thron, \nwas niedrig ist geschätzet, \nsieht er in Gnaden an. \nDie, so stolz von Gebärden,\n[missing text] \nzu Schand ihr Pracht muß werden \nund nimmt ein schmählichs End." C4 A,2 F,2 | %8
 G,2 G,2 C2 A,2 | B,4 G,4 | %10
 E,2 E,2 ^G,2"^5. Wenn ich bin gar umgeben \nmit Angst und großer Not, \nerquickest du mein Leben, \ndaß ich nicht werd zu Spott.\nDu streckst aus deine Hände \nüber der Feinde Zorn, \ndein Rechte hilft mirs enden, \nsonst müßt ich sein verlorn.\n\n6. Herr, was du angefangen, \ndas ende gnädiglich, \nnach dir steht mein Verlangen, \no Gott, erhöre mich! \nDein Güt ist ohne Maßen, \nohn Anfang und ohn End, \ndarum wollst du nicht lassen \ndas Werk, Herr, deiner Händ." A,(A,- | %11
 A,^G,/^F,/ G,2) A,2 E,2 | F,2 G,2 A,4 | G,4 G,8 |] %14
V:4
 C,4 | E,2 F,2 C,2 E,2 | D,4 C,2 C,2 | G,2 A,2 F,2 G,2 | C,4 :| E,4 | D,2 G,2 F,2 G,2 | %7
[M:2/2] A,4 D,2 D,2 | C,2 E,2 C,2 D,2 | G,4 C,4 | C,2 A,,2 E,2 A,,2 | E,4 A,,2 C,2 | D,2 C,2 F,,4 | %13
 G,,4 C,8 |] %14

